assets/images/svg/grape_24.svg

<svg width="24" height="24" viewBox="0 0 24 24" fill="none" xmlns="http://www.w3.org/2000/svg">
<path d="M7.53099 21.9345C6.06224 20.8548 5.29201 20.0231 5.22029 19.4394C5.14857 18.8556 5.68974 17.8209 6.84381 16.3351C5.46787 15.8145 4.68779 15.3228 4.50357 14.8602C4.31935 14.3975 4.55826 13.5303 5.22029 12.2586C4.39107 10.3752 4.15216 9.06891 4.50357 8.33984C4.85498 7.61078 6.02357 6.98859 8.00935 6.47328C8.41013 5.49969 8.90365 4.85219 9.4899 4.53078C10.0761 4.20937 11.084 4.03375 12.5133 4.00391L14.6696 5.20648C17.029 5.49695 18.3781 5.91883 18.717 6.47211C19.0559 7.02539 18.8339 8.44492 18.0509 10.7307C18.6148 11.6924 18.9929 12.4387 19.1853 12.9695C19.3776 13.5002 19.3776 14.1305 19.1853 14.8602C18.8014 15.953 18.4233 16.5899 18.0509 16.771C17.6786 16.9521 16.9044 16.9521 15.7283 16.771L14.0539 19.4394L11.5547 19.9665C10.9096 21.056 10.3597 21.7123 9.90498 21.9352C9.45029 22.1582 8.65896 22.158 7.53099 21.9345Z" fill="white"/>
<path d="M6.52477 16.3966C6.94346 16.5998 7.40351 16.7032 7.86886 16.6988C8.33421 16.6944 8.79221 16.5822 9.20696 16.3711V16.4257C9.20723 17.1849 9.47093 17.9205 9.95307 18.5069C10.4352 19.0933 11.1059 19.4943 11.8507 19.6413C11.7314 20.145 11.4945 20.6132 11.1595 21.0078C10.8245 21.4024 10.4009 21.712 9.92325 21.9114C9.44561 22.1108 8.92755 22.1944 8.41145 22.1551C7.89534 22.1159 7.39585 21.9551 6.95382 21.6858C6.5118 21.4165 6.1398 21.0464 5.86825 20.6058C5.5967 20.1651 5.43332 19.6665 5.39147 19.1506C5.34962 18.6347 5.43049 18.1162 5.62747 17.6375C5.82444 17.1589 6.13193 16.7337 6.52477 16.3966Z" fill="#DBBFFF"/>
<path d="M10.9687 21.2105C9.71504 20.8385 8.38004 20.2561 7.60309 19.2998C7.10551 18.6874 6.49801 17.6641 6.04895 16.9005C6.18926 16.7164 6.34857 16.5475 6.52426 16.3966C6.94295 16.5998 7.403 16.7032 7.86836 16.6988C8.33371 16.6944 8.79171 16.5822 9.20645 16.3711V16.4257C9.20701 17.1847 9.47091 17.9201 9.95312 18.5063C10.4353 19.0925 11.106 19.4932 11.8507 19.6402C11.7094 20.2358 11.4038 20.7798 10.9687 21.2105Z" fill="#CE87FF"/>
<path d="M8.79581 6.83142C8.49989 6.50099 8.01873 5.79077 8.49997 5.50099C8.98121 5.21121 9.43852 4.0182 10 4.00068C10.5615 3.98315 13.0016 3.74079 13.5 4C13.9984 4.25921 14.0825 6.18705 14.3906 6.65681C14.395 6.7265 14.3971 6.79681 14.3971 6.86775C14.3978 7.3154 14.3063 7.7584 14.1285 8.16923C13.5722 7.73395 12.8987 7.47427 12.1941 7.4233C11.4896 7.37233 10.7858 7.53239 10.1725 7.88306C9.81586 7.41577 9.34046 7.05263 8.79581 6.83142Z" fill="#E2CDFF"/>
<path d="M9.20698 16.3704C9.6052 16.1671 9.95311 15.8776 10.2254 15.523C10.4977 15.1683 10.6876 14.7575 10.7813 14.3203C11.4435 14.5473 12.1578 14.5748 12.8356 14.3995C12.9852 15.0757 13.345 15.6872 13.8634 16.1465C14.3817 16.6058 15.0321 16.8892 15.7214 16.9563C15.5889 17.7698 15.1549 18.5036 14.5058 19.0116C13.8567 19.5195 13.0401 19.7644 12.2185 19.6975C11.397 19.6305 10.6309 19.2566 10.0726 18.6502C9.51429 18.0439 9.20483 17.2495 9.20581 16.4252C9.20628 16.407 9.20667 16.3887 9.20698 16.3704Z" fill="#DBBFFF"/>
<path d="M14.9425 18.5953C13.957 18.1519 13.1763 17.5355 12.9921 16.6969C12.5936 16.8005 12.6918 16.9657 12.261 16.9657C11.6964 16.9657 10.7303 17.1865 10.225 17.0126C9.92174 17.1879 9.64448 17.3527 9.38924 17.5076C9.26796 17.16 9.20624 16.7943 9.20667 16.4262V16.3716C9.60506 16.1682 9.9531 15.8785 10.2255 15.5237C10.4978 15.1688 10.6877 14.7577 10.7812 14.3203C11.4434 14.5473 12.1577 14.5748 12.8355 14.3995C12.9851 15.0757 13.3449 15.6872 13.8633 16.1465C14.3817 16.6058 15.0321 16.8892 15.7214 16.9563C15.6218 17.5653 15.3518 18.1336 14.9425 18.5953Z" fill="#CE87FF"/>
<path d="M10.7813 14.3201C10.6906 14.7454 10.5087 15.146 10.2482 15.4942C9.98772 15.8424 9.65476 16.1299 9.27233 16.3369C8.8899 16.5439 8.4671 16.6655 8.03312 16.6932C7.59914 16.7209 7.16431 16.6542 6.75864 16.4975C6.35297 16.3409 5.98612 16.0981 5.6834 15.7859C5.38069 15.4737 5.14933 15.0995 5.00528 14.6892C4.86123 14.2789 4.80792 13.8422 4.84904 13.4093C4.89016 12.9763 5.02472 12.5575 5.24344 12.1816C5.71621 12.6559 6.32273 12.9743 6.98163 13.0941C7.64052 13.2138 8.32028 13.1291 8.92969 12.8515C9.3618 13.5374 10.0149 14.0555 10.7813 14.3201Z" fill="#DBBFFF"/>
<path d="M10.3038 15.4155C9.99763 15.1551 9.73289 14.8495 9.51863 14.5095C8.84161 14.8183 8.0863 14.9125 7.35416 14.7795C6.62202 14.6465 5.9481 14.2927 5.42292 13.7655C5.23938 14.0796 5.10881 14.4218 5.03644 14.7783C4.87412 14.3577 4.80837 13.906 4.84402 13.4565C4.87968 13.0071 5.01584 12.5714 5.24245 12.1816C5.71527 12.6562 6.32195 12.9747 6.98104 13.0945C7.64013 13.2143 8.32009 13.1296 8.92964 12.8517C9.36175 13.5377 10.0149 14.0557 10.7812 14.3203C10.6974 14.7138 10.535 15.0863 10.3038 15.4155Z" fill="#CE87FF"/>
<path d="M19.0329 7.97098C19.0396 8.05692 19.043 8.14379 19.0432 8.2316C19.0436 8.74577 18.9229 9.25281 18.6908 9.71161C18.4587 10.1704 18.1217 10.5681 17.7072 10.8723C17.202 10.573 16.6254 10.4155 16.0382 10.4164C15.8525 10.4165 15.6671 10.4321 15.4839 10.4633C15.6543 10.0377 15.7336 9.58122 15.717 9.12312C15.7003 8.66502 14.2008 7.85525 14 7.44317C14.5561 7.10695 13.5 5.00027 16.5 5C17.1491 5.02988 18.51 7.58511 19.0329 7.97098ZM6.94824 13.0893C6.41981 12.6083 5.13105 12.2238 5 11.5214C4.86895 10.819 4.18053 9.45904 4.49999 8.81991C4.81944 8.18079 6.85953 6.81751 7.49999 6.50074C8.14046 6.18397 9.06851 7.30917 9.77035 7.44317C9.91758 7.57674 10.0524 7.72335 10.1732 7.88121C9.75803 8.11904 9.39515 8.43834 9.10642 8.81991C8.81769 9.20149 8.60905 9.63749 8.49303 10.1017C8.37701 10.5659 8.35601 11.0488 8.43128 11.5214C8.50655 11.9939 8.67654 12.4464 8.93105 12.8516C8.31072 13.1338 7.6177 13.2168 6.94824 13.0893Z" fill="#E2CDFF"/>
<path d="M12.8348 14.3991C13.6777 14.1789 14.4104 13.6569 14.8937 12.9321C15.3771 12.2073 15.5774 11.3303 15.4568 10.4675C16.0894 10.354 16.7414 10.4291 17.3317 10.6833C17.9221 10.9374 18.4246 11.3596 18.7769 11.8972C19.1291 12.4348 19.3156 13.0641 19.313 13.7068C19.3104 14.3495 19.1188 14.9772 18.7622 15.512C18.4057 16.0467 17.8997 16.4647 17.3074 16.7142C16.715 16.9636 16.0624 17.0333 15.4307 16.9147C14.799 16.7961 14.2162 16.4944 13.7546 16.0472C13.2931 15.5999 12.9732 15.0268 12.8348 14.3991Z" fill="#DBBFFF"/>
<path d="M18.4997 11.5292C18.1049 11.4548 17.6999 11.4527 17.3044 11.5231C17.4251 12.3858 17.2248 13.2627 16.7417 13.9875C16.2585 14.7122 15.5261 15.2344 14.6834 15.4548C14.8025 15.9959 15.0572 16.4979 15.4237 16.9135C14.7937 16.7933 14.2126 16.4911 13.7525 16.0441C13.2924 15.5972 12.9733 15.0252 12.8348 14.3989C13.6777 14.1787 14.4104 13.6567 14.8937 12.9319C15.3771 12.2071 15.5774 11.3301 15.4568 10.4673C16.0125 10.3679 16.5845 10.4135 17.1175 10.5995C17.6505 10.7855 18.1266 11.1057 18.4999 11.5292H18.4997Z" fill="#CE87FF"/>
<path d="M12.0468 14.459C11.3857 14.0524 8.78188 13.7231 8.49992 13C8.21796 12.2769 8.78851 10.3476 8.99996 9.60074C9.2114 8.85393 10.3807 7.96894 10.9999 7.50094C11.6191 7.03293 13.1391 7.85933 13.9153 7.85969H13.9352C14.5963 8.26627 15.1067 8.8776 15.3886 9.60074C15.6706 10.3239 15.7088 11.1193 15.4973 11.8661C15.2859 12.6129 14.8364 13.2703 14.2172 13.7383C13.598 14.2063 12.8429 14.4594 12.0667 14.459H12.0468Z" fill="#E2CDFF"/>
<path d="M8.66015 22.6413C6.58757 22.6413 4.90125 20.9556 4.90125 18.8838C4.90103 18.342 5.01808 17.8065 5.24436 17.3143C5.47063 16.822 5.80077 16.3845 6.2121 16.0319L6.4514 15.8263L6.735 15.9646C7.08679 16.1352 7.4733 16.2221 7.86426 16.2184C8.25521 16.2147 8.64001 16.1205 8.98851 15.9433L9.70007 15.5795L9.68695 16.3785V16.4254C9.68764 17.0733 9.91288 17.7009 10.3243 18.2014C10.7358 18.7019 11.308 19.0444 11.9435 19.1704L12.4334 19.2665L12.3183 19.7521C12.1224 20.575 11.6548 21.3077 10.991 21.832C10.3272 22.3562 9.506 22.6414 8.66015 22.6413ZM6.62648 16.9619C6.13495 17.481 5.86109 18.1688 5.86125 18.8838C5.86125 20.4262 7.11679 21.6803 8.66015 21.6803C9.29594 21.6829 9.91324 21.4665 10.4084 21.0677C10.7717 20.7763 11.0571 20.3994 11.2392 19.9708C10.606 19.7473 10.0439 19.3586 9.61127 18.845C9.17861 18.3314 8.89103 17.7115 8.77828 17.0495C8.47302 17.1345 8.15765 17.1777 7.84078 17.178C7.42633 17.1793 7.01503 17.1061 6.62648 16.9619ZM14.3224 8.93031L13.833 8.54594C13.2935 8.12059 12.6259 7.89044 11.9388 7.89297C11.4034 7.89247 10.8771 8.03192 10.4121 8.2975L10.0474 8.50844L9.79195 8.17445C9.55533 7.8651 9.25685 7.60845 8.91555 7.42085C8.57424 7.23324 8.19759 7.11881 7.8096 7.08484L7.33453 7.0443L7.37203 6.56898C7.44723 5.62681 7.87463 4.74756 8.56908 4.10641C9.26353 3.46525 10.174 3.10927 11.1192 3.10938C13.1918 3.10938 14.8781 4.795 14.8781 6.86664C14.8791 7.37997 14.7742 7.88798 14.5699 8.35891L14.3224 8.93031ZM11.9388 6.93367C12.6112 6.93143 13.2732 7.09895 13.8635 7.4207C13.8999 7.23865 13.9181 7.05345 13.9179 6.86781C13.9179 5.32539 12.6623 4.07055 11.119 4.07055C10.4917 4.0706 9.88261 4.28126 9.38933 4.66876C8.89606 5.05626 8.54717 5.59815 8.39859 6.20758C9.12218 6.37278 9.78093 6.74781 10.2923 7.2857C10.8103 7.0538 11.3713 6.93362 11.9388 6.93297V6.93367Z" fill="black"/>
<path d="M12.4853 20.1826C10.4128 20.1826 8.72644 18.497 8.72644 16.4251V16.3625L8.73113 16.0742L8.98894 15.943C9.32411 15.773 9.61691 15.53 9.84579 15.2319C10.0747 14.9338 10.2338 14.5882 10.3115 14.2205L10.4243 13.6895L10.9375 13.8664C11.5105 14.0626 12.1284 14.0863 12.7148 13.9348L13.1974 13.8095L13.3036 14.297C13.4313 14.8741 13.7385 15.396 14.181 15.788C14.6235 16.1799 15.1787 16.4218 15.7671 16.479L16.2778 16.5277L16.1953 17.0338C16.0506 17.9132 15.5981 18.7127 14.9185 19.2894C14.239 19.8662 13.3766 20.1827 12.4853 20.1826ZM9.69511 16.6449C9.74605 17.2856 10.0158 17.8892 10.4592 18.3544C10.9026 18.8197 11.4925 19.1182 12.1299 19.1999C12.7674 19.2816 13.4135 19.1416 13.9599 18.8032C14.5063 18.4648 14.9196 17.9488 15.1305 17.3417C14.5288 17.1915 13.9735 16.8951 13.5138 16.4788C13.0541 16.0625 12.7042 15.5392 12.4952 14.9553C12.0339 15.0191 11.565 15.0032 11.1091 14.9084C10.843 15.6278 10.3457 16.2386 9.69511 16.6449Z" fill="black"/>
<path d="M7.84036 17.1787C5.91849 17.1787 4.35474 15.6156 4.35474 13.6945C4.35449 13.0781 4.51787 12.4727 4.82817 11.9402L5.14271 11.4011L5.58286 11.8434C5.98657 12.2485 6.50455 12.5205 7.06728 12.6227C7.63 12.725 8.21055 12.6527 8.73099 12.4155L9.11302 12.2406L9.33685 12.5962C9.71057 13.189 10.2748 13.6371 10.9369 13.8667L11.3382 14.005L11.25 14.4203C11.0834 15.201 10.6539 15.9008 10.0333 16.4028C9.41268 16.9048 8.6386 17.1787 7.84036 17.1787ZM5.42396 12.9599C5.23367 13.5859 5.29367 14.2612 5.59133 14.8438C5.88898 15.4264 6.40106 15.8707 7.01977 16.0833C7.63848 16.296 8.31555 16.2602 8.90843 15.9836C9.50131 15.7071 9.96376 15.2112 10.1984 14.6005C9.63407 14.3294 9.14011 13.9313 8.75513 13.4376C8.20075 13.6213 7.61127 13.6738 7.03316 13.5908C6.45505 13.5079 5.9041 13.2918 5.42372 12.9597L5.42396 12.9599ZM17.7352 11.4477L17.461 11.2858C17.0296 11.0309 16.5376 10.8966 16.0365 10.897C15.87 10.8969 15.7039 10.9116 15.54 10.9408L15.0493 11.0284L14.9804 10.5346C14.871 9.74745 14.459 9.03396 13.8319 8.5457L13.5404 8.31719L13.6878 7.97711C13.8476 7.60646 13.9255 7.20568 13.9162 6.80216C13.9069 6.39864 13.8106 6.00188 13.6339 5.63899L13.441 5.245L13.816 5.01742C14.4031 4.6619 15.0765 4.47416 15.7629 4.47461C17.836 4.47461 19.5235 6.16024 19.5235 8.23211C19.5238 8.82157 19.3853 9.40283 19.1191 9.92877C18.8529 10.4547 18.4666 10.9105 17.9914 11.2593L17.7352 11.4477ZM16.0374 9.93789C16.5946 9.93756 17.1448 10.061 17.6485 10.2993C17.9356 10.0368 18.1651 9.71747 18.3225 9.36164C18.4798 9.0058 18.5616 8.62118 18.5625 8.23211C18.5625 6.68969 17.307 5.43484 15.7636 5.43484C15.3907 5.43464 15.0214 5.50891 14.6775 5.65328C14.9377 6.42061 14.9442 7.25123 14.6963 8.02258C15.2521 8.5408 15.6489 9.20662 15.84 9.94211C15.906 9.9393 15.9718 9.93789 16.0374 9.93789Z" fill="black"/>
<path d="M7.56701 13.6281C5.49443 13.6281 3.80811 11.9424 3.80811 9.8708C3.80811 7.79916 5.49443 6.1133 7.56701 6.1133C8.14528 6.1113 8.71612 6.24363 9.23453 6.49986C9.75294 6.7561 10.2048 7.12924 10.5544 7.58987L10.8874 8.0251L10.4121 8.29721C10.0529 8.50271 9.73889 8.77872 9.48904 9.10865C9.23919 9.43857 9.05862 9.8156 8.95818 10.2171C8.85774 10.6186 8.8395 11.0362 8.90456 11.4449C8.96962 11.8536 9.11664 12.245 9.33678 12.5954L9.62904 13.0595L9.13053 13.2894C8.63998 13.514 8.10654 13.6296 7.56701 13.6281ZM7.56701 7.0733C6.02365 7.0733 4.76811 8.32815 4.76811 9.87057C4.76811 11.413 6.02342 12.6681 7.56701 12.6681C7.7961 12.6684 8.02437 12.6406 8.2467 12.5853C7.88728 11.7671 7.80997 10.8525 8.02694 9.98553C8.2439 9.11852 8.74283 8.3482 9.44529 7.79565C8.93151 7.32853 8.26139 7.07082 7.56701 7.0733ZM16.0373 17.4517C15.181 17.4517 14.3503 17.1595 13.6827 16.6232C13.0151 16.087 12.5505 15.3389 12.3658 14.5028L12.2667 14.0514L12.7139 13.9342C13.3717 13.7629 13.9542 13.3782 14.3698 12.8403C14.7855 12.3024 15.0109 11.6418 15.0108 10.9621C15.0108 10.8187 15.0009 10.6754 14.9812 10.5334L14.9175 10.0759L15.3724 9.99455C15.5919 9.95615 15.8144 9.93717 16.0373 9.93783C18.1099 9.93783 19.7962 11.6235 19.7962 13.6953C19.7962 15.7672 18.1101 17.4517 16.0373 17.4517ZM13.4297 14.7097C13.6347 15.2347 13.9934 15.6855 14.4588 16.0033C14.9242 16.3211 15.4747 16.4911 16.0383 16.491C17.5816 16.491 18.8372 15.2361 18.8372 13.6937C18.8372 12.1513 17.5807 10.8969 16.0373 10.8969H15.9703V10.9623C15.9707 11.7695 15.7287 12.5582 15.2757 13.2263C14.8228 13.8945 14.1797 14.4112 13.4297 14.7097Z" fill="black"/>
<path d="M12.0663 14.9383C9.83576 14.9383 8.021 13.1243 8.021 10.8947C8.021 8.66507 9.83576 6.851 12.0663 6.851C14.2969 6.851 16.1116 8.66507 16.1116 10.8947C16.1116 13.1243 14.2969 14.9383 12.0663 14.9383ZM12.0663 7.811C10.3652 7.811 8.981 9.19382 8.981 10.8947C8.981 12.5955 10.365 13.9783 12.0663 13.9783C13.7676 13.9783 15.1514 12.5955 15.1514 10.8947C15.1514 9.19382 13.7676 7.811 12.0663 7.811ZM14.3107 5.61444C14.228 5.61431 14.1467 5.59281 14.0747 5.55203C14.0027 5.51125 13.9425 5.45257 13.8999 5.38167C13.8572 5.31077 13.8337 5.23007 13.8314 5.14737C13.8291 5.06468 13.8483 4.9828 13.8869 4.90968C14.3937 3.95272 14.9351 3.2114 15.4964 2.70655C16.0999 2.16327 16.7463 1.87054 17.4183 1.83655C17.5454 1.83012 17.6699 1.87446 17.7644 1.95982C17.8588 2.04517 17.9155 2.16456 17.9219 2.29171C17.9284 2.41886 17.884 2.54335 17.7987 2.63781C17.7133 2.73227 17.5939 2.78895 17.4668 2.79538C16.5293 2.84225 15.6117 3.70546 14.7358 5.35968C14.6949 5.4368 14.6336 5.50129 14.5587 5.54618C14.4838 5.59107 14.398 5.61467 14.3107 5.61444Z" fill="black"/>
<path d="M8.75697 4.62972C8.20087 4.10472 7.74978 3.41058 7.40369 2.5473C8.86197 1.76714 10.2307 1.60988 11.5099 2.0755C12.7892 2.54113 13.7366 3.54113 14.3522 5.0755C14.2217 5.14535 14.092 5.21011 13.9629 5.2698C13.7267 4.80959 13.3815 4.41416 12.9574 4.118C12.5333 3.82184 12.0431 3.63395 11.5297 3.57071C11.0163 3.50747 10.4952 3.57081 10.0119 3.75519C9.52864 3.93958 9.09779 4.23942 8.75697 4.62855V4.62972Z" fill="#72BD87"/>
<path d="M13.7468 5.90083L13.5359 5.49067C13.3356 5.09992 13.0426 4.76413 12.6827 4.51262C12.3227 4.26111 11.9067 4.10151 11.4709 4.04777C11.0351 3.99402 10.5927 4.04776 10.1825 4.20428C9.77219 4.36081 9.40647 4.61537 9.11721 4.94575L8.78908 5.32075L8.42674 4.9788C7.82229 4.4081 7.32799 3.65013 6.95744 2.72622L6.79736 2.32778L7.17658 2.12505C8.75346 1.2813 10.2666 1.11325 11.6735 1.62536C13.0805 2.13747 14.1328 3.23833 14.7978 4.89888L14.9578 5.29732L14.5781 5.50005C14.4422 5.57283 14.3043 5.64177 14.1645 5.70677L13.7468 5.90083ZM8.02643 2.7745C8.23971 3.22239 8.48815 3.61403 8.76893 3.94638C9.31585 3.47922 9.98833 3.18362 10.7023 3.09654C11.4163 3.00946 12.1401 3.13475 12.7833 3.45677C12.3719 3.03446 11.869 2.71237 11.3134 2.51539C10.7577 2.31842 10.1642 2.25182 9.57869 2.32075C9.08065 2.37888 8.5601 2.53169 8.02643 2.7745Z" fill="black"/>
</svg>

<svg xmlns="http://www.w3.org/2000/svg" width="24" height="24" fill="none">
    <path fill="#fff"
        d="M7.53 21.93c-1.47-1.08-2.24-1.9-2.31-2.5-.07-.57.47-1.6 1.62-3.1-1.37-.52-2.15-1-2.34-1.47-.18-.46.06-1.33.72-2.6-.83-1.88-1.07-3.2-.72-3.92.35-.73 1.52-1.35 3.5-1.87.41-.97.9-1.62 1.49-1.94.59-.32 1.6-.5 3.02-.53l2.16 1.2c2.36.3 3.7.72 4.05 1.27.34.56.11 1.97-.67 4.26.56.96.94 1.7 1.14 2.24.19.53.19 1.16 0 1.89-.39 1.1-.77 1.73-1.14 1.91-.37.18-1.15.18-2.32 0l-1.68 2.67-2.5.53c-.64 1.09-1.19 1.74-1.65 1.97-.45.22-1.24.22-2.37 0Z" />
    <path fill="#DBBFFF"
        d="M6.52 16.4a3.01 3.01 0 0 0 2.69-.03v.06a3.28 3.28 0 0 0 2.64 3.21 3.28 3.28 0 1 1-5.33-3.24Z" />
    <path fill="#CE87FF"
        d="M10.97 21.21c-1.25-.37-2.59-.95-3.37-1.91-.5-.61-1.1-1.64-1.55-2.4.14-.18.3-.35.47-.5a3.01 3.01 0 0 0 2.69-.03v.06a3.28 3.28 0 0 0 2.64 3.21c-.14.6-.45 1.14-.88 1.57Z" />
    <path fill="#E2CDFF"
        d="M8.8 6.83c-.3-.33-.78-1.04-.3-1.33.48-.29.94-1.48 1.5-1.5.56-.02 3-.26 3.5 0s.58 2.19.9 2.66a3.35 3.35 0 0 1-.27 1.5 3.56 3.56 0 0 0-3.96-.28A3.29 3.29 0 0 0 8.8 6.83Z" />
    <path fill="#DBBFFF"
        d="M9.2 16.37a3 3 0 0 0 1.58-2.05c.66.23 1.38.25 2.06.08a3.28 3.28 0 0 0 2.88 2.56 3.28 3.28 0 0 1-6.51-.59Z" />
    <path fill="#CE87FF"
        d="M14.94 18.6c-.98-.45-1.76-1.06-1.95-1.9-.4.1-.3.27-.73.27-.56 0-1.53.22-2.04.04l-.83.5a3.27 3.27 0 0 1-.18-1.08v-.06a3.01 3.01 0 0 0 1.57-2.05c.66.23 1.38.25 2.06.08a3.28 3.28 0 0 0 2.88 2.56c-.1.6-.37 1.17-.78 1.64Z" />
    <path fill="#DBBFFF"
        d="M10.78 14.32a3 3 0 1 1-5.54-2.14 3.28 3.28 0 0 0 3.69.67c.43.69 1.08 1.2 1.85 1.47Z" />
    <path fill="#CE87FF"
        d="M10.3 15.42c-.3-.26-.57-.57-.78-.91a3.65 3.65 0 0 1-4.1-.74c-.18.31-.31.65-.38 1a3.01 3.01 0 0 1 .2-2.59 3.28 3.28 0 0 0 3.69.67c.43.69 1.08 1.2 1.85 1.47-.08.4-.24.77-.48 1.1Z" />
    <path fill="#E2CDFF"
        d="m19.03 7.97.01.26a3.27 3.27 0 0 1-1.33 2.64 3.26 3.26 0 0 0-2.23-.4c.17-.43.25-.89.24-1.35-.02-.45-1.52-1.26-1.72-1.68.56-.33-.5-2.44 2.5-2.44.65.03 2.01 2.59 2.53 2.97ZM6.95 13.1c-.53-.48-1.82-.87-1.95-1.57-.13-.7-.82-2.06-.5-2.7.32-.64 2.36-2 3-2.32.64-.32 1.57.8 2.27.94.15.14.28.28.4.44a3.55 3.55 0 0 0-1.24 4.97 3.3 3.3 0 0 1-1.98.24Z" />
    <path fill="#DBBFFF" d="M12.83 14.4a3.55 3.55 0 0 0 2.63-3.93 3.28 3.28 0 1 1-2.63 3.93Z" />
    <path fill="#CE87FF"
        d="M18.5 11.53c-.4-.08-.8-.08-1.2 0a3.56 3.56 0 0 1-2.62 3.92c.12.55.38 1.05.74 1.46a3.28 3.28 0 0 1-2.59-2.51 3.55 3.55 0 0 0 2.63-3.93 3.29 3.29 0 0 1 3.04 1.06Z" />
    <path fill="#E2CDFF"
        d="M12.05 14.46c-.66-.4-3.27-.74-3.55-1.46-.28-.72.29-2.65.5-3.4.21-.75 1.38-1.63 2-2.1.62-.47 2.14.36 2.92.36h.02a3.56 3.56 0 0 1-1.87 6.6h-.02Z" />
    <path fill="#000"
        d="M8.66 22.64a3.76 3.76 0 0 1-2.45-6.6l.24-.21.29.13a2.53 2.53 0 0 0 2.25-.02l.71-.36-.01.8v.05a2.8 2.8 0 0 0 2.25 2.74l.5.1-.12.48a3.76 3.76 0 0 1-3.66 2.9Zm-2.03-5.68a2.8 2.8 0 1 0 4.6 3.01 3.77 3.77 0 0 1-2.45-2.92 3.5 3.5 0 0 1-2.15-.09Zm7.7-8.03-.5-.38a3.04 3.04 0 0 0-3.42-.25l-.36.2-.26-.33a2.8 2.8 0 0 0-1.98-1.09l-.48-.04.04-.47a3.76 3.76 0 1 1 7.2 1.79l-.25.57Zm-2.4-2a4 4 0 0 1 1.93.5A2.8 2.8 0 0 0 8.4 6.2c.72.16 1.38.54 1.9 1.08a4.04 4.04 0 0 1 1.64-.36Z" />
    <path fill="#000"
        d="M12.49 20.18a3.76 3.76 0 0 1-3.76-3.75v-.36l.26-.13a2.51 2.51 0 0 0 1.32-1.72l.11-.53.52.18c.57.2 1.19.22 1.77.06l.49-.12.1.49a2.8 2.8 0 0 0 2.47 2.18l.5.05-.07.5a3.76 3.76 0 0 1-3.71 3.15Zm-2.8-3.54a2.8 2.8 0 0 0 5.44.7 3.77 3.77 0 0 1-2.63-2.38c-.47.06-.94.04-1.4-.05a3.46 3.46 0 0 1-1.4 1.73Z" />
    <path fill="#000"
        d="M7.84 17.18a3.49 3.49 0 0 1-3.01-5.24l.31-.54.44.44a2.8 2.8 0 0 0 3.15.58l.38-.18.23.36c.37.59.93 1.04 1.6 1.27l.4.14-.09.41a3.49 3.49 0 0 1-3.41 2.76Zm-2.42-4.22a2.53 2.53 0 0 0 4.78 1.64 4.06 4.06 0 0 1-1.44-1.16 3.77 3.77 0 0 1-3.34-.48Zm12.32-1.51-.28-.16a2.8 2.8 0 0 0-1.92-.35l-.5.09-.06-.5c-.1-.78-.52-1.5-1.15-1.98l-.29-.23.15-.34a2.8 2.8 0 0 0-.06-2.34l-.19-.4.38-.22a3.75 3.75 0 0 1 4.17 6.24l-.25.19Zm-1.7-1.51c.55 0 1.1.12 1.6.36a2.81 2.81 0 0 0 .92-2.07 2.8 2.8 0 0 0-3.88-2.58c.26.77.26 1.6.02 2.37a4 4 0 0 1 1.14 1.92h.2Z" />
    <path fill="#000"
        d="M7.57 13.63a3.76 3.76 0 1 1 2.98-6.04l.34.44-.48.27a3.07 3.07 0 0 0-1.07 4.3l.29.46-.5.23c-.49.22-1.02.34-1.56.34Zm0-6.56a2.8 2.8 0 1 0 .68 5.52 4.03 4.03 0 0 1 1.2-4.8 2.78 2.78 0 0 0-1.88-.72Zm8.47 10.38a3.76 3.76 0 0 1-3.67-2.95l-.1-.45.44-.12a3.07 3.07 0 0 0 2.27-3.4l-.06-.45.45-.09a3.76 3.76 0 1 1 .66 7.46Zm-2.61-2.74a2.8 2.8 0 1 0 2.6-3.81h-.06v.06a4.03 4.03 0 0 1-2.54 3.75Z" />
    <path fill="#000"
        d="M12.07 14.94a4.05 4.05 0 1 1 0-8.1 4.05 4.05 0 0 1 0 8.1Zm0-7.13a3.09 3.09 0 1 0 0 6.18 3.09 3.09 0 0 0 0-6.18Zm2.24-2.2a.48.48 0 0 1-.42-.7c.5-.96 1.05-1.7 1.6-2.2a3.1 3.1 0 0 1 1.93-.87.48.48 0 0 1 .05.96c-.94.04-1.86.9-2.73 2.56a.48.48 0 0 1-.43.25Z" />
    <path fill="#72BD87"
        d="M8.76 4.63C8.2 4.1 7.75 3.41 7.4 2.55a4.9 4.9 0 0 1 4.11-.47 4.9 4.9 0 0 1 2.84 3l-.39.19a3.17 3.17 0 0 0-5.2-.64Z" />
    <path fill="#000"
        d="m13.75 5.9-.21-.4a2.7 2.7 0 0 0-4.42-.55l-.33.37-.36-.34a6.26 6.26 0 0 1-1.47-2.25l-.16-.4.38-.2a5.37 5.37 0 0 1 4.5-.5A5.37 5.37 0 0 1 14.8 4.9l.16.4-.38.2a8.2 8.2 0 0 1-.42.2l-.41.2ZM8.03 2.77c.21.45.46.84.74 1.18a3.66 3.66 0 0 1 4.01-.5 3.85 3.85 0 0 0-3.2-1.13c-.5.06-1.02.21-1.55.45Z" />
</svg>
